svg/business/sale_fill.svg

<?xml version="1.0" encoding="UTF-8"?>
<svg width="24px" height="24px" viewBox="0 0 24 24" version="1.1" xmlns="http://www.w3.org/2000/svg" xmlns:xlink="http://www.w3.org/1999/xlink">
    <title>sale_fill</title>
    <g id="页面-1" stroke="none" stroke-width="1" fill="none" fill-rule="evenodd">
        <g id="Business" transform="translate(-912.000000, -240.000000)">
            <g id="sale_fill" transform="translate(912.000000, 240.000000)">
                <path d="M24,0 L24,24 L0,24 L0,0 L24,0 Z M12.5934901,23.257841 L12.5819402,23.2595131 L12.5108777,23.2950439 L12.4918791,23.2987469 L12.4918791,23.2987469 L12.4767152,23.2950439 L12.4056548,23.2595131 C12.3958229,23.2563662 12.3870493,23.2590235 12.3821421,23.2649074 L12.3780323,23.275831 L12.360941,23.7031097 L12.3658947,23.7234994 L12.3769048,23.7357139 L12.4804777,23.8096931 L12.4953491,23.8136134 L12.4953491,23.8136134 L12.5071152,23.8096931 L12.6106902,23.7357139 L12.6232938,23.7196733 L12.6232938,23.7196733 L12.6266527,23.7031097 L12.609561,23.275831 C12.6075724,23.2657013 12.6010112,23.2592993 12.5934901,23.257841 L12.5934901,23.257841 Z M12.8583906,23.1452862 L12.8445485,23.1473072 L12.6598443,23.2396597 L12.6498822,23.2499052 L12.6498822,23.2499052 L12.6471943,23.2611114 L12.6650943,23.6906389 L12.6699349,23.7034178 L12.6699349,23.7034178 L12.678386,23.7104931 L12.8793402,23.8032389 C12.8914285,23.8068999 12.9022333,23.8029875 12.9078286,23.7952264 L12.9118235,23.7811639 L12.8776777,23.1665331 C12.8752882,23.1545897 12.8674102,23.1470016 12.8583906,23.1452862 L12.8583906,23.1452862 Z M12.1430473,23.1473072 C12.1332178,23.1423925 12.1221763,23.1452606 12.1156365,23.1525954 L12.1099173,23.1665331 L12.0757714,23.7811639 C12.0751323,23.7926639 12.0828099,23.8018602 12.0926481,23.8045676 L12.108256,23.8032389 L12.3092106,23.7104931 L12.3186497,23.7024347 L12.3186497,23.7024347 L12.3225043,23.6906389 L12.340401,23.2611114 L12.337245,23.2485176 L12.337245,23.2485176 L12.3277531,23.2396597 L12.1430473,23.1473072 Z" id="MingCute" fill-rule="nonzero"></path>
                <path d="M9.40535,2.89707 C10.8450278,1.67019741 12.937384,1.62475768 14.4253637,2.76075082 L14.5943,2.89707 L14.9708,3.21789 C15.2453429,3.45187286 15.5771918,3.60650878 15.9305778,3.66699892 L16.1089,3.68933 L16.602,3.72867 C18.4924828,3.87953207 20.007093,5.33420199 20.2499831,7.1967332 L20.2711,7.39781 L20.3104,7.89087 C20.3391143,8.25046714 20.4644408,8.59445204 20.6715808,8.88711227 L20.7819,9.029 L21.1027,9.40547 C22.3295148,10.8451285 22.3749524,12.937484 21.2390128,14.4254637 L21.1027,14.5944 L20.7819,14.9709 C20.5479,15.2454429 20.3932469,15.5772918 20.3327397,15.9306778 L20.3104,16.109 L20.2711,16.6021 C20.1201897,18.4925828 18.6655647,20.0072862 16.8030726,20.2500928 L16.602,20.2712 L16.1089,20.3106 C15.7493286,20.3392286 15.4053327,20.4645429 15.1126813,20.671681 L14.9708,20.782 L14.5943,21.1028 C13.1546704,22.3297111 11.0623159,22.3751523 9.57429165,21.2391235 L9.40535,21.1028 L9.02888,20.782 C8.75432,20.548 8.42248327,20.3933469 8.06907592,20.3329026 L7.89074,20.3106 L7.39768,20.2712 C5.50716828,20.1203862 3.99251044,18.6656713 3.74966204,16.803173 L3.72855,16.6021 L3.6892,16.109 C3.66050286,15.7494286 3.53520082,15.4054327 3.32808012,15.1127813 L3.21777,14.9709 L2.89695,14.5944 C1.67007741,13.1547704 1.62463768,11.0624159 2.76063082,9.57440951 L2.89695,9.40547 L3.21777,9.029 C3.45175286,8.75444 3.60638143,8.42260327 3.66686948,8.06920222 L3.6892,7.89087 L3.72855,7.39781 C3.87941207,5.50728862 5.33408199,3.99263045 7.1966042,3.74978204 L7.39768,3.72867 L7.89074,3.68933 C8.25034571,3.66063286 8.59433184,3.53532347 8.88699224,3.32820067 L9.02888,3.21789 L9.40535,2.89707 Z M14.4998,13 C13.6714,13 12.9998,13.6716 12.9998,14.5 C12.9998,15.3284 13.6714,16 14.4998,16 C15.3282,16 15.9998,15.3284 15.9998,14.5 C15.9998,13.6716 15.3282,13 14.4998,13 Z M14.2927,8.29289 L8.29271,14.2929 C7.90219,14.6834 7.90219,15.3166 8.29271,15.7071 C8.68323,16.0976 9.3164,16.0976 9.70692,15.7071 L15.7069,9.70711 C16.0974,9.31658 16.0974,8.68342 15.7069,8.29289 C15.3164,7.90237 14.6832,7.90237 14.2927,8.29289 Z M9.49982,8 C8.67139,8 7.99982,8.67157 7.99982,9.5 C7.99982,10.3284 8.67139,11 9.49982,11 C10.3282,11 10.9998,10.3284 10.9998,9.5 C10.9998,8.67157 10.3282,8 9.49982,8 Z" id="形状" fill="#09244B"></path>
            </g>
        </g>
    </g>
</svg>

<svg xmlns="http://www.w3.org/2000/svg" width="24" height="24"><g fill="none" fill-rule="evenodd"><path d="M24 0v24H0V0zM12.593 23.258l-.011.002-.071.035-.02.004-.014-.004-.071-.035c-.01-.004-.019-.001-.024.005l-.004.01-.017.428.005.02.01.013.104.074.015.004.012-.004.104-.074.012-.016.004-.017-.017-.427c-.002-.01-.009-.017-.017-.018m.265-.113-.013.002-.185.093-.01.01-.003.011.018.43.005.012.008.007.201.093c.012.004.023 0 .029-.008l.004-.014-.034-.614c-.003-.012-.01-.02-.02-.022m-.715.002a.023.023 0 0 0-.027.006l-.006.014-.034.614c0 .012.007.02.017.024l.015-.002.201-.093.01-.008.004-.011.017-.43-.003-.012-.01-.01z"/><path fill="#09244B" d="M9.405 2.897a4 4 0 0 1 5.02-.136l.17.136.376.32a2 2 0 0 0 .96.45l.178.022.493.04a4 4 0 0 1 3.648 3.468l.021.2.04.494a2 2 0 0 0 .36.996l.11.142.322.376a4 4 0 0 1 .136 5.02l-.136.17-.321.376a2 2 0 0 0-.45.96l-.022.178-.039.493a4 4 0 0 1-3.468 3.648l-.201.021-.493.04a2 2 0 0 0-.996.36l-.142.111-.377.32a4 4 0 0 1-5.02.137l-.169-.136-.376-.321a2 2 0 0 0-.96-.45l-.178-.021-.493-.04a4 4 0 0 1-3.648-3.468l-.021-.2-.04-.494a2 2 0 0 0-.36-.996l-.111-.142-.321-.377a4 4 0 0 1-.136-5.02l.136-.169.32-.376a2 2 0 0 0 .45-.96l.022-.178.04-.493A4 4 0 0 1 7.197 3.75l.2-.021.494-.04a2 2 0 0 0 .996-.36l.142-.111zM14.5 13a1.5 1.5 0 1 0 0 3 1.5 1.5 0 0 0 0-3m-.207-4.707-6 6a1 1 0 1 0 1.414 1.414l6-6a1 1 0 0 0-1.414-1.414M9.5 8a1.5 1.5 0 1 0 0 3 1.5 1.5 0 0 0 0-3"/></g></svg>
